assets/fc/fc-process.svg

<svg xmlns="http://www.w3.org/2000/svg" width="100%" height="100%" viewBox="0 0 48 48"><g fill="#9C27B0"><path d="M31 8l11.9 1.6-9.8 9.8zM17 40L5.1 38.4l9.8-9.8zM8 17L9.6 5.1l9.8 9.8z"/><path d="M9.3 21.2l-4.2.8c-.1.7-.1 1.3-.1 2 0 4.6 1.6 9 4.6 12.4l3-2.6C10.3 31.1 9 27.6 9 24c0-.9.1-1.9.3-2.8zM24 5c-5.4 0-10.2 2.3-13.7 5.9l2.8 2.8C15.9 10.8 19.7 9 24 9c.9 0 1.9.1 2.8.3l.7-3.9C26.4 5.1 25.2 5 24 5zM38.7 26.8l4.2-.8c.1-.7.1-1.3.1-2 0-4.4-1.5-8.7-4.3-12.1l-3.1 2.5c2.2 2.7 3.4 6.1 3.4 9.5 0 1-.1 2-.3 2.9zM34.9 34.3C32.1 37.2 28.3 39 24 39c-.9 0-1.9-.1-2.8-.3l-.7 3.9c1.2.2 2.4.3 3.5.3 5.4 0 10.2-2.3 13.7-5.9l-2.8-2.7z"/><path d="M40 31l-1.6 11.9-9.8-9.8z"/></g></svg>

<svg xmlns="http://www.w3.org/2000/svg" width="100%" height="100%" viewBox="0 0 48 48"><g fill="#9C27B0"><path d="M31 8L42.9 9.6 33.1 19.4zM17 40L5.1 38.4 14.9 28.6zM8 17L9.6 5.1 19.4 14.9z"/><path d="M9.3 21.2L5.1 22C5 22.7 5 23.3 5 24c0 4.6 1.6 9 4.6 12.4l3-2.6C10.3 31.1 9 27.6 9 24 9 23.1 9.1 22.1 9.3 21.2zM24 5c-5.4 0-10.2 2.3-13.7 5.9l2.8 2.8C15.9 10.8 19.7 9 24 9c.9 0 1.9.1 2.8.3l.7-3.9C26.4 5.1 25.2 5 24 5zM38.7 26.8l4.2-.8c.1-.7.1-1.3.1-2 0-4.4-1.5-8.7-4.3-12.1l-3.1 2.5c2.2 2.7 3.4 6.1 3.4 9.5C39 24.9 38.9 25.9 38.7 26.8zM34.9 34.3C32.1 37.2 28.3 39 24 39c-.9 0-1.9-.1-2.8-.3l-.7 3.9c1.2.2 2.4.3 3.5.3 5.4 0 10.2-2.3 13.7-5.9L34.9 34.3z"/><path d="M40 31L38.4 42.9 28.6 33.1z"/></g></svg>
